public/pyroclast/icons/fh-pyroclast-color-icon.svg

<svg width="31.554" height="41.91" xmlns="http://www.w3.org/2000/svg"><defs><clipPath id="a"><path style="fill:none" d="M0 0h25.6v35.91H0z"/></clipPath></defs><g style="fill:#eb5b38;fill-opacity:1" data-name="Layer 2"><g clip-path="url(#a)" style="fill:#eb5b38;fill-opacity:1;clip-path:url(#a)" transform="translate(2.954 3)" data-name="Layer 1"><path d="M25.44 0c-2.09 1.22-4.18 5-5.36 4.71-.49-.1-.33-.88 0-2a.1.1 0 0 0-.08-.1c-2 1-6.31 10.49-7.9 10.65-.75.07-.39-.82-.13-2a.11.11 0 0 0-.16-.12c-1 .63-2.38 2.74-3.74 5.91-.54 1.26-1.73.27-1.4-1.21a.11.11 0 0 0-.17-.11c-1.87 1.47-2.38 5-3.3 5.21-.55.1-.52-.59-.33-1.54a.1.1 0 0 0-.18-.09c-2.39 2.4-5 11.4 1.19 15.1 7.38 4.42 13.29-1.79 14-4.29a.11.11 0 0 0-.16-.12c-.61.37-1.54 1-1.69.47-.29-1.17 2.89-3.54 3.25-6.43a.157.157 0 0 0-.28-.14c-1.06 1-1.79.74-1.71-.06.14-1.25 3.64-4.8 4.56-8.67a.11.11 0 0 0-.18-.1c-.89.85-1.54 1.06-1.78.47-.44-1.08 5.7-8.92 5.58-11a.13.13 0 0 0-.21-.09c-1 .86-1.5.43-1.52.08 0-.77.91-2.81 1.84-4.32a.126.126 0 0 0-.14-.21M14.3 25.54c.91 2.23-.26 4.15-1.5 5.78A3.84 3.84 0 0 1 8.54 33a17.47 17.47 0 0 1-2.93-.61C4.5 32 2.29 30.34 2.68 28.31c.34-1.71.08-2.66.62-3.47 1.34-2 3.72-3.55 4.89-3.64a6.57 6.57 0 0 1 3.83.55c1.41.73 1.87 2.81 2.28 3.79" style="fill:#eb5b38;fill-opacity:1"/></g></g></svg>

<?xml version="1.0" encoding="UTF-8" standalone="no"?>
<svg
   viewBox="0 0 31.553932 41.91"
   version="1.1"
   id="svg15"
   sodipodi:docname="fh-meteor.svg"
   inkscape:version="1.1.2 (0a00cf5339, 2022-02-04)"
   width="31.553932"
   height="41.91"
   xmlns:inkscape="http://www.inkscape.org/namespaces/inkscape"
   xmlns:sodipodi="http://sodipodi.sourceforge.net/DTD/sodipodi-0.dtd"
   xmlns="http://www.w3.org/2000/svg"
   xmlns:svg="http://www.w3.org/2000/svg">
  <sodipodi:namedview
     id="namedview17"
     pagecolor="#ffffff"
     bordercolor="#666666"
     borderopacity="1.0"
     inkscape:pageshadow="2"
     inkscape:pageopacity="0.0"
     inkscape:pagecheckerboard="0"
     showgrid="false"
     inkscape:zoom="24.310777"
     inkscape:cx="15.774897"
     inkscape:cy="20.916649"
     inkscape:window-width="1846"
     inkscape:window-height="1016"
     inkscape:window-x="0"
     inkscape:window-y="0"
     inkscape:window-maximized="1"
     inkscape:current-layer="svg15"
     lock-margins="true"
     fit-margin-top="3"
     fit-margin-left="3"
     fit-margin-right="3"
     fit-margin-bottom="3" />
  <defs
     id="defs7">
    <style
       id="style2">.cls-1{fill:none;}.cls-2{clip-path:url(#clip-path);}</style>
    <clipPath
       id="clip-path"
       transform="translate(0 0)">
      <rect
         class="cls-1"
         width="25.6"
         height="35.91"
         id="rect4"
         x="0"
         y="0" />
    </clipPath>
  </defs>
  <g
     id="Layer_2"
     data-name="Layer 2"
     style="fill:#eb5b38;fill-opacity:1"
     transform="translate(2.9539318,3)">
    <g
       id="Layer_1-2"
       data-name="Layer 1"
       style="fill:#eb5b38;fill-opacity:1">
      <g
         class="cls-2"
         clip-path="url(#clip-path)"
         id="g11"
         style="fill:#eb5b38;fill-opacity:1">
        <path
           d="m 25.44,0 c -2.09,1.22 -4.18,5 -5.36,4.71 -0.49,-0.1 -0.33,-0.88 0,-2 A 0.1,0.1 0 0 0 20,2.61 c -2,1 -6.31,10.49 -7.9,10.65 -0.75,0.07 -0.39,-0.82 -0.13,-2 a 0.11,0.11 0 0 0 -0.16,-0.12 c -1,0.63 -2.38,2.74 -3.74,5.91 -0.54,1.26 -1.73,0.27 -1.4,-1.21 A 0.11,0.11 0 0 0 6.5,15.73 C 4.63,17.2 4.12,20.73 3.2,20.94 2.65,21.04 2.68,20.35 2.87,19.4 A 0.10062306,0.10062306 0 0 0 2.69,19.31 c -2.39,2.4 -5,11.4 1.19,15.1 7.38,4.42 13.29,-1.79 14,-4.29 A 0.11,0.11 0 0 0 17.72,30 c -0.61,0.37 -1.54,1 -1.69,0.47 -0.29,-1.17 2.89,-3.54 3.25,-6.43 A 0.15652476,0.15652476 0 0 0 19,23.9 c -1.06,1 -1.79,0.74 -1.71,-0.06 0.14,-1.25 3.64,-4.8 4.56,-8.67 a 0.11,0.11 0 0 0 -0.18,-0.1 c -0.89,0.85 -1.54,1.06 -1.78,0.47 -0.44,-1.08 5.7,-8.92 5.58,-11 A 0.13,0.13 0 0 0 25.26,4.45 c -1,0.86 -1.5,0.43 -1.52,0.08 0,-0.77 0.91,-2.81 1.84,-4.32 A 0.12619429,0.12619429 0 0 0 25.44,0 M 14.3,25.54 c 0.91,2.23 -0.26,4.15 -1.5,5.78 A 3.84,3.84 0 0 1 8.54,33 17.47,17.47 0 0 1 5.61,32.39 C 4.5,32 2.29,30.34 2.68,28.31 3.02,26.6 2.76,25.65 3.3,24.84 c 1.34,-2 3.72,-3.55 4.89,-3.64 a 6.57,6.57 0 0 1 3.83,0.55 c 1.41,0.73 1.87,2.81 2.28,3.79"
           id="path9"
           style="fill:#eb5b38;fill-opacity:1" />
      </g>
    </g>
  </g>
</svg>
